assets/img/js.svg

<svg xmlns="http://www.w3.org/2000/svg" width="60" height="60" viewBox="0 0 60 60">
  <g fill="none" fill-rule="evenodd">
    <polygon fill="#F7DF1E" fill-rule="nonzero" points="0 0 60 0 60 60 0 60"/>
    <path fill="#000" fill-rule="nonzero" d="M15.7761905 50.1403809L20.3678095 47.361619C21.253619 48.9321905 22.0594286 50.2610477 23.9922858 50.2610477 25.8450476 50.2610477 27.0131428 49.5362857 27.0131428 46.7172382L27.0131428 27.5458095 32.6516191 27.5458095 32.6516191 46.7969524C32.6516191 52.6369523 29.228381 55.2951429 24.234 55.2951429 19.7234286 55.2951429 17.1051429 52.9590476 15.7760952 50.1399047M35.7142856 49.5361905L40.3053333 46.878C41.5139048 48.8517143 43.0846666 50.3015238 45.8635237 50.3015238 48.1998096 50.3015238 49.689619 49.1334286 49.689619 47.522381 49.689619 45.5891428 48.1592381 44.9043809 45.5815237 43.7770477L44.1722857 43.1724762C40.1041905 41.4409523 37.4056191 39.2660953 37.4056191 34.6745714 37.4056191 30.4456191 40.6276191 27.2234285 45.6622856 27.2234285 49.2468572 27.2234285 51.8244762 28.4720953 53.6769523 31.7344763L49.286857 34.5536191C48.3201905 32.8219048 47.2733334 32.1373334 45.662381 32.1373334 44.0110477 32.1373334 42.9638095 33.1844761 42.9638095 34.5536191 42.9638095 36.245238 44.0110477 36.9300952 46.4273334 37.9773333L47.8368572 38.5814285C52.6297144 40.635619 55.3282856 42.7297144 55.3282856 47.4418095 55.3282856 52.5168572 51.3410477 55.2956191 45.9844763 55.2956191 40.7486667 55.2956191 37.3654287 52.7986666 35.714381 49.5361905"/>
  </g>
</svg>

<svg xmlns="http://www.w3.org/2000/svg" width="60" height="60" fill-rule="nonzero" xmlns:v="https://vecta.io/nano"><path fill="#f7df1e" d="M0 0h60v60H0z"/><path fill="#000" d="M15.776 50.14l4.592-2.78c.886 1.57 1.692 2.9 3.624 2.9 1.853 0 3.02-.725 3.02-3.544v-19.17h5.638v19.25c0 5.84-3.423 8.498-8.418 8.498-4.51 0-7.13-2.336-8.458-5.155m19.938-.604l4.59-2.658c1.21 1.974 2.78 3.424 5.558 3.424 2.336 0 3.826-1.168 3.826-2.78 0-1.933-1.53-2.618-4.108-3.745l-1.41-.605c-4.068-1.732-6.767-3.906-6.767-8.498 0-4.23 3.222-7.45 8.257-7.45 3.585 0 6.162 1.25 8.015 4.51l-4.4 2.82c-.967-1.732-2.014-2.416-3.624-2.416-1.65 0-2.7 1.047-2.7 2.416 0 1.692 1.047 2.376 3.464 3.424l1.4.604c4.793 2.054 7.49 4.148 7.49 8.86 0 5.075-3.987 7.854-9.344 7.854-5.236 0-8.62-2.497-10.27-5.76"/></svg>
